build/Karasa-Jaga/scalable/actions/address-book-new-symbolic.svg

<svg height="16" width="16" xmlns="http://www.w3.org/2000/svg"><g fill="#bebebe"><g transform="matrix(.89905517 0 0 1 .807652 0)"><path d="m2.9960938 1.0898438c-.1287529.28646-.2089844.6020671-.2089844.9394531h.0253906c-.0063653.06866-.0253906.1327496-.0253906.203125h5.5566406c.1888836-.4208339.4449758-.8009861.7460938-1.1425781h-5.9960938zm11.1269532 7.2539062c-.280754.1073493-.572723.1879666-.876953.2382812v5.2753908h-10.4589846c0 .06993.0191053.13293.0253906.201172h-.0253906c0 .337386.0802316.654946.2089844.941406h.0976562 11.029297z" stroke-width="1.019443" transform="matrix(1.1122788 0 0 1 -.898334 0)"/><path d="m1.64465 11.59376a.50219013.50219013 0 1 0 .0937 1h1.8125a.50005.50005 0 1 0 0-1h-1.8125a.50005.50005 0 0 0 -.0937 0z"/><path d="m1.64465 9.59376a.50219013.50219013 0 1 0 .0937 1h1.8125a.50005.50005 0 1 0 0-1h-1.8125a.50005.50005 0 0 0 -.0937 0z"/><path d="m1.64465 7.59376a.50219013.50219013 0 1 0 .0937 1h1.8125a.50005.50005 0 1 0 0-1h-1.8125a.50005.50005 0 0 0 -.0937 0z"/><path d="m1.64465 5.59376a.50219013.50219013 0 1 0 .0937 1h1.8125a.50005.50005 0 1 0 0-1h-1.8125a.50005.50005 0 0 0 -.0937 0z"/><path d="m1.64465 3.59376a.50219013.50219013 0 1 0 .0937 1h1.8125a.50005.50005 0 1 0 0-1h-1.8125a.50005.50005 0 0 0 -.0937 0z"/><path d="m7.9785156 3.6855469c-1.7490293.2710959-3.0996094 1.9252605-3.0996094 3.9453125 0 2.2091 1.6096004 3.9999996 3.5957032 3.9999996h2.2480466s.421168 0 .449219-.5c0-.5-.449219-.5-.449219-.5h-2.2480466c-1.4896445 0-2.6972656-1.3431996-2.6972656-2.9999996 0-1.4743991.9584783-2.6950929 2.21875-2.9472656-.0254355-.1950148-.0585938-.387894-.0585938-.5898438 0-.1397757.028712-.2716308.0410156-.4082031zm.2519532 1.9726562c-.8761067.1339782-1.5527344.9613618-1.5527344 1.9726563 0 1.10457.8037786 2 1.796875 2 .4703137 0 .8944295-.2064263 1.2148437-.5351563.2563476.33888.6350029.5353763 1.0332029.5351563.594819 0 1.094221-.4309098 1.273438-1.0253906-.314979-.0350641-.617877-.0994552-.910156-.1953126-.081193.129872-.210289.2207032-.363282.2207032-.248265 0-.449218-.22386-.449218-.5v-.078125c-.3437569-.1938546-.6681669-.4164307-.9492192-.6894532.0223036.0871628.0507812.1724592.0507812.2675782 0 .55228-.4038514 1-.9003906 1s-.8984375-.44772-.8984375-1 .4018983-1 .8984375-1c.1004967 0 .192967.0286647.2832031.0625-.2207336-.3170723-.3920637-.6664277-.5273437-1.0351563z" stroke-width=".948185" transform="matrix(1.1122788 0 0 1 -.898339 .000004)"/></g><path d="m12.5 7.5937497c-1.933 0-3.5-1.5669997-3.5-3.4999997s1.567-3.5 3.5-3.5 3.5 1.567 3.5 3.5-1.567 3.4999997-3.5 3.4999997zm-.5-.9999997h1v-2h2v-1h-2v-2h-1v2h-2v1h2z" fill-rule="evenodd"/></g></svg>

<?xml version="1.0" encoding="UTF-8" standalone="no"?>
<!-- Created with Inkscape (http://www.inkscape.org/) -->

<svg
   xmlns:dc="http://purl.org/dc/elements/1.1/"
   xmlns:cc="http://creativecommons.org/ns#"
   xmlns:rdf="http://www.w3.org/1999/02/22-rdf-syntax-ns#"
   xmlns:svg="http://www.w3.org/2000/svg"
   xmlns="http://www.w3.org/2000/svg"
   xmlns:sodipodi="http://sodipodi.sourceforge.net/DTD/sodipodi-0.dtd"
   xmlns:inkscape="http://www.inkscape.org/namespaces/inkscape"
   width="16px"
   height="16px"
   id="svg13294"
   version="1.1"
   inkscape:version="0.92.2 (unknown)"
   sodipodi:docname="address-book-new-symbolic.svg">
  <defs
     id="defs13296">
    <filter
       style="color-interpolation-filters:sRGB"
       id="filter7554">
      <feBlend
         mode="darken"
         in2="BackgroundImage"
         id="feBlend7556" />
    </filter>
  </defs>
  <sodipodi:namedview
     id="base"
     pagecolor="#ffffff"
     bordercolor="#666666"
     borderopacity="1.0"
     inkscape:pageopacity="0.0"
     inkscape:pageshadow="2"
     inkscape:zoom="16.000001"
     inkscape:cx="7.3033574"
     inkscape:cy="8.2908922"
     inkscape:current-layer="layer1"
     showgrid="true"
     inkscape:grid-bbox="true"
     inkscape:document-units="px"
     inkscape:window-width="1317"
     inkscape:window-height="716"
     inkscape:window-x="49"
     inkscape:window-y="27"
     inkscape:window-maximized="1"
     inkscape:snap-global="false" />
  <metadata
     id="metadata13299">
    <rdf:RDF>
      <cc:Work
         rdf:about="">
        <dc:format>image/svg+xml</dc:format>
        <dc:type
           rdf:resource="http://purl.org/dc/dcmitype/StillImage" />
        <dc:title></dc:title>
      </cc:Work>
    </rdf:RDF>
  </metadata>
  <g
     id="layer1"
     inkscape:label="Layer 1"
     inkscape:groupmode="layer">
    <g
       id="g3020">
      <g
         transform="matrix(0.89905517,0,0,1,0.80765188,0)"
         id="g2363">
        <path
           id="rect10788-4"
           transform="matrix(1.1122788,0,0,1,-0.89833406,0)"
           d="M 2.9960938 1.0898438 C 2.8673409 1.3763038 2.7871094 1.6919109 2.7871094 2.0292969 L 2.8125 2.0292969 C 2.8061347 2.0979569 2.7871094 2.1620465 2.7871094 2.2324219 L 8.34375 2.2324219 C 8.5326336 1.811588 8.7887258 1.4314358 9.0898438 1.0898438 L 3.09375 1.0898438 L 2.9960938 1.0898438 z M 14.123047 8.34375 C 13.842293 8.4510993 13.550324 8.5317166 13.246094 8.5820312 L 13.246094 13.857422 L 2.7871094 13.857422 C 2.7871094 13.927352 2.8062147 13.990352 2.8125 14.058594 L 2.7871094 14.058594 C 2.7871094 14.39598 2.867341 14.71354 2.9960938 15 L 3.09375 15 L 14.123047 15 L 14.123047 8.34375 z "
           style="color:#000000;text-indent:0;text-transform:none;fill:#bebebe;stroke-width:1.01944268;enable-background:new" />
        <path
           inkscape:connector-curvature="0"
           id="path3601-2-3-3-9-34"
           style="color:#000000;text-indent:0;text-transform:none;fill:#bebebe"
           d="m 1.64465,11.59376 a 0.50219013,0.50219013 0 1 0 0.0937,1 h 1.8125 a 0.50005,0.50005 0 1 0 0,-1 h -1.8125 a 0.50005,0.50005 0 0 0 -0.0937,0 z" />
        <path
           inkscape:connector-curvature="0"
           id="path3601-2-3-3-9-3-0"
           style="color:#000000;text-indent:0;text-transform:none;fill:#bebebe"
           d="m 1.64465,9.59376 a 0.50219013,0.50219013 0 1 0 0.0937,1 h 1.8125 a 0.50005,0.50005 0 1 0 0,-1 h -1.8125 a 0.50005,0.50005 0 0 0 -0.0937,0 z" />
        <path
           inkscape:connector-curvature="0"
           id="path3601-2-3-3-9-3-3-4"
           style="color:#000000;text-indent:0;text-transform:none;fill:#bebebe"
           d="m 1.64465,7.59376 a 0.50219013,0.50219013 0 1 0 0.0937,1 h 1.8125 a 0.50005,0.50005 0 1 0 0,-1 h -1.8125 a 0.50005,0.50005 0 0 0 -0.0937,0 z" />
        <path
           inkscape:connector-curvature="0"
           id="path3601-2-3-3-9-3-3-7-0"
           style="color:#000000;text-indent:0;text-transform:none;fill:#bebebe"
           d="m 1.64465,5.59376 a 0.50219013,0.50219013 0 1 0 0.0937,1 h 1.8125 a 0.50005,0.50005 0 1 0 0,-1 h -1.8125 a 0.50005,0.50005 0 0 0 -0.0937,0 z" />
        <path
           inkscape:connector-curvature="0"
           id="path35635"
           style="color:#000000;text-indent:0;text-transform:none;fill:#bebebe"
           d="m 1.64465,3.59376 a 0.50219013,0.50219013 0 1 0 0.0937,1 h 1.8125 a 0.50005,0.50005 0 1 0 0,-1 h -1.8125 a 0.50005,0.50005 0 0 0 -0.0937,0 z" />
        <g
           style="enable-background:new"
           id="g877"
           transform="translate(-19.712439,5.463954)">
          <g
             transform="translate(-785,351.01)"
             id="layer14-8">
            <path
               id="rect6564"
               transform="matrix(1.1122788,0,0,1,803.8141,-356.47395)"
               d="M 7.9785156 3.6855469 C 6.2294863 3.9566428 4.8789062 5.6108074 4.8789062 7.6308594 C 4.8789062 9.8399594 6.4885066 11.630859 8.4746094 11.630859 L 10.722656 11.630859 C 10.722656 11.630859 11.143824 11.630859 11.171875 11.130859 C 11.171875 10.630859 10.722656 10.630859 10.722656 10.630859 L 8.4746094 10.630859 C 6.9849649 10.630859 5.7773438 9.2876594 5.7773438 7.6308594 C 5.7773438 6.1564603 6.7358221 4.9357665 7.9960938 4.6835938 C 7.9706583 4.488579 7.9375 4.2956998 7.9375 4.09375 C 7.9375 3.9539743 7.966212 3.8221192 7.9785156 3.6855469 z M 8.2304688 5.6582031 C 7.3543621 5.7921813 6.6777344 6.6195649 6.6777344 7.6308594 C 6.6777344 8.7354294 7.481513 9.6308594 8.4746094 9.6308594 C 8.9449231 9.6308594 9.3690389 9.4244331 9.6894531 9.0957031 C 9.9458007 9.4345831 10.324456 9.6310794 10.722656 9.6308594 C 11.317475 9.6308594 11.816877 9.1999496 11.996094 8.6054688 C 11.681115 8.5704047 11.378217 8.5060136 11.085938 8.4101562 C 11.004745 8.5400282 10.875649 8.6308594 10.722656 8.6308594 C 10.474391 8.6308594 10.273438 8.4069994 10.273438 8.1308594 L 10.273438 8.0527344 C 9.9296811 7.8588798 9.6052711 7.6363037 9.3242188 7.3632812 C 9.3465224 7.450444 9.375 7.5357404 9.375 7.6308594 C 9.375 8.1831394 8.9711486 8.6308594 8.4746094 8.6308594 C 7.9780702 8.6308594 7.5761719 8.1831394 7.5761719 7.6308594 C 7.5761719 7.0785794 7.9780702 6.6308594 8.4746094 6.6308594 C 8.5751061 6.6308594 8.6675764 6.6595241 8.7578125 6.6933594 C 8.5370789 6.3762871 8.3657488 6.0269317 8.2304688 5.6582031 z "
               style="fill:#bebebe;fill-opacity:1;stroke-width:0.94818521" />
          </g>
        </g>
      </g>
      <path
         inkscape:connector-curvature="0"
         d="M 12.5,7.5937497 C 10.567,7.5937497 9,6.02675 9,4.09375 c 0,-1.933 1.567,-3.5 3.5,-3.5 1.933,0 3.5,1.567 3.5,3.5 0,1.933 -1.567,3.4999997 -3.5,3.4999997 z M 12,6.59375 h 1 v -2 h 2 v -1 h -2 v -2 h -1 v 2 h -2 v 1 h 2 z"
         id="path6731"
         sodipodi:nodetypes="sssssccccccccccccc"
         style="color:#000000;clip-rule:nonzero;display:inline;overflow:visible;visibility:visible;opacity:1;isolation:auto;mix-blend-mode:normal;color-interpolation:sRGB;color-interpolation-filters:linearRGB;solid-color:#000000;solid-opacity:1;fill:#bebebe;fill-opacity:1;fill-rule:evenodd;stroke:none;stroke-width:1;stroke-linecap:butt;stroke-linejoin:miter;stroke-miterlimit:4;stroke-dasharray:none;stroke-dashoffset:0;stroke-opacity:1;color-rendering:auto;image-rendering:auto;shape-rendering:auto;text-rendering:auto;enable-background:accumulate" />
    </g>
  </g>
</svg>
